images/hmenu.svg

<?xml version="1.0" encoding="utf-8"?>
<!-- Generator: Adobe Illustrator 24.0.0, SVG Export Plug-In . SVG Version: 6.00 Build 0)  -->
<svg version="1.1" id="Layer_1" xmlns="http://www.w3.org/2000/svg" xmlns:xlink="http://www.w3.org/1999/xlink" x="0px" y="0px"
	 viewBox="0 0 32 32" style="enable-background:new 0 0 32 32;" xml:space="preserve">
<style type="text/css">
	.st0{fill:#068284;}
</style>
<g>
	<g>
		<path class="st0" d="M21.48,2.43c-3.83,0-7.66,0-11.48,0c-1.31,0-2.56,1.15-2.5,2.5c0.06,1.35,1.1,2.5,2.5,2.5
			c3.83,0,7.66,0,11.48,0c1.31,0,2.56-1.15,2.5-2.5C23.92,3.58,22.89,2.43,21.48,2.43L21.48,2.43z"/>
	</g>
</g>
<g>
	<g>
		<path class="st0" d="M29,13.49c-8.67,0-17.33,0-26,0c-3.22,0-3.22,5,0,5c8.67,0,17.33,0,26,0C32.22,18.49,32.22,13.49,29,13.49
			L29,13.49z"/>
	</g>
</g>
<g>
	<g>
		<path class="st0" d="M21.87,24.49c-3.83,0-7.66,0-11.48,0c-1.31,0-2.56,1.15-2.5,2.5c0.06,1.35,1.1,2.5,2.5,2.5
			c3.83,0,7.66,0,11.48,0c1.31,0,2.56-1.15,2.5-2.5C24.31,25.63,23.27,24.49,21.87,24.49L21.87,24.49z"/>
	</g>
</g>
</svg>

<svg id="Layer_1" data-name="Layer 1" xmlns="http://www.w3.org/2000/svg" viewBox="0 0 30.83 27.05"><defs><style>.cls-1{fill:#068284;}</style></defs><title>hmenu</title><path class="cls-1" d="M21.48,2.43H10a2.53,2.53,0,0,0-2.5,2.5A2.54,2.54,0,0,0,10,7.43H21.48A2.53,2.53,0,0,0,24,4.93a2.54,2.54,0,0,0-2.5-2.5Z" transform="translate(-0.59 -2.43)"/><path class="cls-1" d="M29,13.49H3c-3.22,0-3.22,5,0,5H29c3.22,0,3.22-5,0-5Z" transform="translate(-0.59 -2.43)"/><path class="cls-1" d="M21.87,24.49H10.39a2.5,2.5,0,0,0,0,5H21.87a2.5,2.5,0,0,0,0-5Z" transform="translate(-0.59 -2.43)"/></svg>
